packages/tokens/icons/chatbot/size16Px.svg

<svg viewBox="0 0 16 16" fill="none" xmlns="http://www.w3.org/2000/svg" width="1em" height="1em"><circle cx="10.5" cy="8" r="0.25" stroke="currentColor" stroke-width="0.5"/><circle cx="5.5" cy="8" r="0.25" stroke="currentColor" stroke-width="0.5"/><path d="M6.5 9C6.5 9.33333 6.875 10 8 10C9.125 10 9.5 9.33333 9.5 9" stroke="currentColor" stroke-linecap="round" stroke-linejoin="round"/><path d="M8.5 2C8.5 2.27614 8.27614 2.5 8 2.5C7.72386 2.5 7.5 2.27614 7.5 2C7.5 1.72386 7.72386 1.5 8 1.5C8.27614 1.5 8.5 1.72386 8.5 2Z" stroke="currentColor"/><path d="M8 1.5L8 4" stroke="currentColor"/><path d="M2.5 5.5L2.5 13.7929C2.5 14.1834 2.81658 14.5 3.20711 14.5C3.39464 14.5 3.5745 14.4255 3.70711 14.2929L4.70711 13.2929C4.89464 13.1054 5.149 13 5.41421 13L12.5 13C13.0523 13 13.5 12.5523 13.5 12L13.5 5.5C13.5 4.94772 13.0523 4.5 12.5 4.5L3.5 4.5C2.94772 4.5 2.5 4.94772 2.5 5.5Z" stroke="currentColor"/><rect x="13.5" y="7" width="1" height="2" rx="0.5" stroke="currentColor"/><rect x="1.5" y="7" width="1" height="2" rx="0.5" stroke="currentColor"/></svg>

<svg xmlns="http://www.w3.org/2000/svg" fill="none" viewBox="0 0 16 16" width="1em" height="1em"><circle cx="10.5" cy="8" r=".25" stroke="currentColor" stroke-width=".5"/><circle cx="5.5" cy="8" r=".25" stroke="currentColor" stroke-width=".5"/><path stroke="currentColor" stroke-linecap="round" stroke-linejoin="round" d="M6.5 9c0 .333.375 1 1.5 1s1.5-.667 1.5-1"/><path stroke="currentColor" d="M8.5 2a.5.5 0 1 1-1 0 .5.5 0 0 1 1 0ZM8 1.5V4M2.5 5.5v8.293a.707.707 0 0 0 1.207.5l1-1A1 1 0 0 1 5.414 13H12.5a1 1 0 0 0 1-1V5.5a1 1 0 0 0-1-1h-9a1 1 0 0 0-1 1Z"/><rect width="1" height="2" x="13.5" y="7" stroke="currentColor" rx=".5"/><rect width="1" height="2" x="1.5" y="7" stroke="currentColor" rx=".5"/></svg>
